theme/img/top/txt_scroll.svg

<svg width="13" height="48" viewBox="0 0 13 48" fill="none" xmlns="http://www.w3.org/2000/svg">
<path d="M0.84 3.776C0.84 3.12533 0.957333 2.51733 1.192 1.952C1.42667 1.38667 1.78933 0.906666 2.28 0.511999L3.208 1.456C2.472 2.032 2.104 2.82667 2.104 3.84C2.104 4.30933 2.18933 4.68267 2.36 4.96C2.53067 5.23733 2.81333 5.376 3.208 5.376C3.528 5.376 3.76267 5.232 3.912 4.944C4.072 4.656 4.22133 4.144 4.36 3.408C4.456 2.928 4.584 2.496 4.744 2.112C4.904 1.73867 5.13333 1.44 5.432 1.216C5.74133 0.991999 6.14133 0.879999 6.632 0.879999C7.10133 0.879999 7.50133 1.008 7.832 1.264C8.17333 1.52 8.43467 1.856 8.616 2.272C8.79733 2.69867 8.888 3.168 8.888 3.68C8.888 4.928 8.488 5.87733 7.688 6.528L6.712 5.68C7.02133 5.44533 7.24533 5.15733 7.384 4.816C7.53333 4.47467 7.608 4.10133 7.608 3.696C7.608 3.23733 7.512 2.896 7.32 2.672C7.13867 2.448 6.92 2.336 6.664 2.336C6.36533 2.336 6.14667 2.464 6.008 2.72C5.86933 2.976 5.72533 3.44 5.576 4.112C5.45867 4.64533 5.304 5.11467 5.112 5.52C4.92 5.936 4.66933 6.256 4.36 6.48C4.05067 6.71467 3.65067 6.832 3.16 6.832C2.424 6.832 1.85333 6.54933 1.448 5.984C1.04267 5.42933 0.84 4.69333 0.84 3.776ZM0.823999 13.9034C0.823999 13.1994 0.989333 12.57 1.32 12.0154C1.66133 11.4714 2.13067 11.0394 2.728 10.7194C3.336 10.41 4.04 10.2554 4.84 10.2554C5.64 10.2554 6.344 10.41 6.952 10.7194C7.56 11.0394 8.02933 11.4714 8.36 12.0154C8.70133 12.57 8.872 13.1994 8.872 13.9034C8.872 14.49 8.74933 15.0287 8.504 15.5194C8.26933 16.01 7.92267 16.4207 7.464 16.7514L6.616 15.6154C7.24533 15.2207 7.56 14.65 7.56 13.9034C7.56 13.2527 7.32 12.7194 6.84 12.3034C6.36 11.898 5.69333 11.6954 4.84 11.6954C3.99733 11.6954 3.336 11.898 2.856 12.3034C2.376 12.7194 2.136 13.2527 2.136 13.9034C2.136 14.65 2.44533 15.226 3.064 15.6314L2.232 16.7514C1.77333 16.4207 1.42133 16.01 1.176 15.5194C0.941333 15.0287 0.823999 14.49 0.823999 13.9034ZM0.999999 20.7239L8.68 20.7239L8.68 22.0359L7.48 22.1159C7.896 22.3292 8.232 22.6492 8.488 23.0759C8.744 23.5132 8.872 23.9825 8.872 24.4839C8.872 24.6545 8.86133 24.8145 8.84 24.9639C8.81867 25.1132 8.79733 25.2412 8.776 25.3479L7.384 25.3479C7.416 25.2305 7.44267 25.0812 7.464 24.8999C7.48533 24.7185 7.496 24.5212 7.496 24.3079C7.496 23.7105 7.29867 23.2039 6.904 22.7879C6.52 22.3719 6.01333 22.1639 5.384 22.1639L0.999999 22.1639L0.999999 20.7239ZM0.823999 32.2584C0.823999 31.5544 0.989332 30.925 1.32 30.3704C1.66133 29.8264 2.136 29.3944 2.744 29.0744C3.352 28.765 4.056 28.6104 4.856 28.6104C5.656 28.6104 6.35467 28.765 6.952 29.0744C7.56 29.3944 8.02933 29.8264 8.36 30.3704C8.70133 30.925 8.872 31.5544 8.872 32.2584C8.872 32.9624 8.70133 33.5864 8.36 34.1304C8.02933 34.685 7.56 35.117 6.952 35.4264C6.35467 35.7464 5.656 35.9064 4.856 35.9064C4.056 35.9064 3.352 35.7464 2.744 35.4264C2.136 35.117 1.66133 34.685 1.32 34.1304C0.989332 33.5864 0.823999 32.9624 0.823999 32.2584ZM2.136 32.2584C2.136 32.909 2.376 33.437 2.856 33.8424C3.34667 34.2584 4.01333 34.4664 4.856 34.4664C5.69867 34.4664 6.36 34.2584 6.84 33.8424C7.32 33.437 7.56 32.909 7.56 32.2584C7.56 31.6077 7.32 31.0744 6.84 30.6584C6.36 30.253 5.69867 30.0504 4.856 30.0504C4.01333 30.0504 3.34667 30.253 2.856 30.6584C2.376 31.0744 2.136 31.6077 2.136 32.2584ZM0.999998 39.8757L12.472 39.8757L12.472 41.3157L0.999998 41.3157L0.999998 39.8757ZM0.999998 45.6939L12.472 45.6939L12.472 47.1339L0.999998 47.1339L0.999998 45.6939Z" fill="white"/>
</svg>

<svg xmlns="http://www.w3.org/2000/svg" width="13" height="48" fill="none"><path fill="#fff" d="M.84 3.776q0-.976.352-1.824A3.6 3.6 0 0 1 2.28.512l.928.944Q2.104 2.32 2.104 3.84q0 .705.256 1.12.255.416.848.416.48 0 .704-.432.24-.432.448-1.536.144-.72.384-1.296.24-.56.688-.896.465-.336 1.2-.336.705 0 1.2.384.512.384.784 1.008.272.64.272 1.408 0 1.872-1.2 2.848l-.976-.848q.464-.353.672-.864.225-.512.224-1.12 0-.688-.288-1.024-.272-.336-.656-.336a.7.7 0 0 0-.656.384q-.209.384-.432 1.392a6.6 6.6 0 0 1-.464 1.408q-.288.624-.752.96-.465.352-1.2.352-1.104 0-1.712-.848Q.84 5.152.84 3.776M.824 13.903q0-1.056.496-1.888.511-.816 1.408-1.296.912-.464 2.112-.464t2.112.464q.912.48 1.408 1.296.512.832.512 1.888 0 .88-.368 1.616a3.2 3.2 0 0 1-1.04 1.232l-.848-1.136q.945-.591.944-1.712 0-.975-.72-1.6-.72-.608-2-.608-1.264 0-1.984.608-.72.625-.72 1.6 0 1.12.928 1.728l-.832 1.12a3.35 3.35 0 0 1-1.056-1.232 3.7 3.7 0 0 1-.352-1.616M1 20.723h7.68v1.313l-1.2.08q.624.32 1.008.96.384.656.384 1.408 0 .255-.032.48t-.064.384H7.384q.048-.176.08-.448t.032-.592q0-.896-.592-1.52-.575-.624-1.52-.624H1zM.824 32.259q0-1.056.496-1.888a3.64 3.64 0 0 1 1.424-1.296q.912-.464 2.112-.464t2.096.464q.912.48 1.408 1.296.512.832.512 1.888T8.36 34.13q-.495.833-1.408 1.296-.896.48-2.096.48t-2.112-.48A3.5 3.5 0 0 1 1.32 34.13q-.496-.816-.496-1.872m1.312 0q0 .977.72 1.584.735.624 2 .624 1.264 0 1.984-.624.72-.608.72-1.584 0-.975-.72-1.6-.72-.608-1.984-.608t-2 .608q-.72.624-.72 1.6M1 39.876h11.472v1.44H1zm0 5.818h11.472v1.44H1z"/></svg>
